X:1
T:SO LONG, IT's BEEN GOOD TO KNOW YUH
M:3/4
L:1/4
K:C
 G| G2 G| E F G| F E F| D2 E/2F/2| G G G| E D E| F E F| D2 E/2D/2|\
 C2 C| E D E/2E/2| F F F| A3| G- G G| G F E| D E D| C E F| G3| E2 G|\
 G A3/2 G/2| G E2| F3| D2 G| G A3/2 G/2| G E2| G3| c2 B| A F A| c B A/2A/2|\
 G3/2 G/2 G| G F E| D D D| G3-| G z G/2G/2| G3/2 A/2 G| F E D| C3-|\
 C2||
